PortableApps/LibreOfficePortable/App/libreoffice/help/media/icon-themes/cmd/lc_showinvalid.svg

<svg viewBox="0 0 24 24" xmlns="http://www.w3.org/2000/svg"><path d="m15 4.1484375v.8515625h-6v-.8496094a6 8.5 0 0 0 -1.5742188 1.8496094h.5742188v3h-1.734375a6 8.5 0 0 0 -.1660156 1h1.9003906v3h-1.9042969a6 8.5 0 0 0 .1757813 1h1.7285156v3h-.5644531a6 8.5 0 0 0 1.5644531 1.851562v-.851562h6v.849609a6 8.5 0 0 0 1.574219-1.849609h-.574219v-3h1.734375a6 8.5 0 0 0 .166016-1h-1.900391v-3h1.904297a6 8.5 0 0 0 -.175781-1h-1.728516v-3h.564453a6 8.5 0 0 0 -1.564453-1.8515625zm-6 1.8515625h6v3 1 3 1 3h-6v-3-1-3-1z" fill="#b8b8b8"/><path d="m2 2v3h6v-3zm7 0v3h6v-3zm7 0v3h6v-3zm-14 4v3h6v-3zm7 0v3 1 3 1 3h6v-3-1-3-1-3zm7 0v3h6v-3zm-14 4v3h6v-3zm14 0v3h6v-3zm-14 4v3h6v-3zm14 0v3h6v-3zm-14 4v3h6v-3zm7 0v3h6v-3zm7 0v3h6v-3z" fill="#fff"/><path d="m11 8h2v7h-2z" fill="#b8b8b8"/><path d="m12 2a7 9.5 0 0 0 -7 9.5 7 9.5 0 0 0 7 9.5 7 9.5 0 0 0 7-9.5 7 9.5 0 0 0 -7-9.5zm0 1a6 8.5 0 0 1 6 8.5 6 8.5 0 0 1 -6 8.5 6 8.5 0 0 1 -6-8.5 6 8.5 0 0 1 6-8.5z" fill="#e68497"/><path d="m8 2v1.71875a7 9.5 0 0 1 1-.7910156v-.9277344zm7 0v.9296875a7 9.5 0 0 1 1 .7792969v-1.7089844zm-13 3v1h4.2988281a7 9.5 0 0 1 .609375-1zm15.097656 0a7 9.5 0 0 1 .59961 1h4.302734v-1zm-15.097656 4v1h3.0957031a7 9.5 0 0 1 .1582031-1zm16.75 0a7 9.5 0 0 1 .158203 1h3.091797v-1zm-16.75 4v1h3.25a7 9.5 0 0 1 -.1582031-1zm16.904297 0a7 9.5 0 0 1 -.158203 1h3.253906v-1zm-16.904297 4v1h4.9023438a7 9.5 0 0 1 -.5996094-1zm15.701172 0a7 9.5 0 0 1 -.609375 1h4.908203v-1zm-1.701172 2.28125a7 9.5 0 0 1 -1 .791016v.927734h1zm-8 .0098v1.70895h1v-.929688a7 9.5 0 0 1 -1-.779296z" fill="#808080"/></svg>

<svg viewBox="0 0 24 24" xmlns="http://www.w3.org/2000/svg">
  <path
     style="fill:#b8b8b8"
     d="M 15 4.1484375 L 15 5 L 9 5 L 9 4.1503906 A 6 8.5 0 0 0 7.4257812 6 L 8 6 L 8 9 L 6.265625 9 A 6 8.5 0 0 0 6.0996094 10 L 8 10 L 8 13 L 6.0957031 13 A 6 8.5 0 0 0 6.2714844 14 L 8 14 L 8 17 L 7.4355469 17 A 6 8.5 0 0 0 9 18.851562 L 9 18 L 15 18 L 15 18.849609 A 6 8.5 0 0 0 16.574219 17 L 16 17 L 16 14 L 17.734375 14 A 6 8.5 0 0 0 17.900391 13 L 16 13 L 16 10 L 17.904297 10 A 6 8.5 0 0 0 17.728516 9 L 16 9 L 16 6 L 16.564453 6 A 6 8.5 0 0 0 15 4.1484375 z M 9 6 L 15 6 L 15 9 L 15 10 L 15 13 L 15 14 L 15 17 L 9 17 L 9 14 L 9 13 L 9 10 L 9 9 L 9 6 z "
     />
  <path
     style="fill:#ffffff"
     d="M 2 2 L 2 5 L 8 5 L 8 2 L 2 2 z M 9 2 L 9 5 L 15 5 L 15 2 L 9 2 z M 16 2 L 16 5 L 22 5 L 22 2 L 16 2 z M 2 6 L 2 9 L 8 9 L 8 6 L 2 6 z M 9 6 L 9 9 L 9 10 L 9 13 L 9 14 L 9 17 L 15 17 L 15 14 L 15 13 L 15 10 L 15 9 L 15 6 L 9 6 z M 16 6 L 16 9 L 22 9 L 22 6 L 16 6 z M 2 10 L 2 13 L 8 13 L 8 10 L 2 10 z M 16 10 L 16 13 L 22 13 L 22 10 L 16 10 z M 2 14 L 2 17 L 8 17 L 8 14 L 2 14 z M 16 14 L 16 17 L 22 17 L 22 14 L 16 14 z M 2 18 L 2 21 L 8 21 L 8 18 L 2 18 z M 9 18 L 9 21 L 15 21 L 15 18 L 9 18 z M 16 18 L 16 21 L 22 21 L 22 18 L 16 18 z "
     />
  <rect
     style="fill:#b8b8b8"
     width="2"
     height="7"
     x="11"
     y="8" />
  <path
     style="fill:#e68497"
     d="M 12 2 A 7 9.5 0 0 0 5 11.5 A 7 9.5 0 0 0 12 21 A 7 9.5 0 0 0 19 11.5 A 7 9.5 0 0 0 12 2 z M 12 3 A 6 8.5 0 0 1 18 11.5 A 6 8.5 0 0 1 12 20 A 6 8.5 0 0 1 6 11.5 A 6 8.5 0 0 1 12 3 z "
     />
  <path
     style="fill:#808080"
     d="M 8,2 V 3.71875 A 7,9.5 0 0 1 9,2.9277344 V 2 Z m 7,0 v 0.9296875 a 7,9.5 0 0 1 1,0.7792969 V 2 Z M 2,5 v 1 h 4.2988281 a 7,9.5 0 0 1 0.609375,-1 z m 15.097656,0 a 7,9.5 0 0 1 0.59961,1 H 22 V 5 Z M 2,9 v 1 H 5.0957031 A 7,9.5 0 0 1 5.2539062,9 Z m 16.75,0 a 7,9.5 0 0 1 0.158203,1 H 22 V 9 Z M 2,13 v 1 H 5.25 A 7,9.5 0 0 1 5.0917969,13 Z m 16.904297,0 a 7,9.5 0 0 1 -0.158203,1 H 22 V 13 Z M 2,17 v 1 H 6.9023438 A 7,9.5 0 0 1 6.3027344,17 Z m 15.701172,0 a 7,9.5 0 0 1 -0.609375,1 H 22 V 17 Z M 16,19.28125 a 7,9.5 0 0 1 -1,0.791016 V 21 h 1 z m -8,0.0098 V 21 H 9 V 20.070312 A 7,9.5 0 0 1 8,19.291016 Z"
     />
</svg>
